!!!!SEGMENT: pl-kk--kk-i-3--004_anonim--patrem-omnipotentem.krn
!!!cenid: 15xx:569
!!!COM: Anonim
!!!COM-rismid: pe30004985
!!!CDT:
!!!CNT:
!!!OTL: Patrem omnipotentem
!!!PDT:
!!!AGN:
!!!SMS-siglum: PL-Kk
!!!SMS-shelfmark: Kk.I.3
!!!SMS-shelfwork: 004 W
!!!SMS-variant:
!!!SMS-altvar:
!!!NIFC-rismid: 1001145493
!!!URL-scan: http://repozytorium.nifc.pl/skany/pl-kk-nut--i-3
!!!ONB-nifc: UWAGA: Discantus (brak), Tenor (s. 2v-4v, skan 0175-0177), Bassus (brak)
**kern	**kern	**text	**kern
*part3	*part2	*part2	*part1
*staff3	*staff2	*staff2	*staff1
*I"Bassus	*I"Tenor	*	*I"Discantus
*I'B	*I'T	*	*I'A
*Ibass	*Itenor	*	*Ialto
*ICvox	*ICvox	*	*ICvox
*	*clefF3	*	*
*	*k[b-]	*	*
*	*F:	*	*
*	*M2/1	*	*
*	*met(C|)	*	*
=1-	=1-	=1-	=1-
!LO:TX:t=P:problem:źrodło wybrakowane, brak partii	!	!	!LO:TX:t=P:problem:źrodło wybrakowane, brak partii
0ryy	1F	Pa-	0ryy
.	1F	-trem	.
=2-	=2-	=2-	=2-
0ryy	1G	o-	0ryy
.	1A	-mni-	.
=3-	=3-	=3-	=3-
0ryy	1B-	-po-	0ryy
.	1G	-ten-	.
=4-	=4-	=4-	=4-
0ryy	0F	-tem	0ryy
=5-	=5-	=5-	=5-
0ryy	1G	Fa-	0ryy
*	*2\right	*	*
.	2G\	-cto-	.
.	2G\	-rem	.
=6-	=6-	=6-	=6-
0ryy	1D	coe-	0ryy
.	1E	-li	.
=7-	=7-	=7-	=7-
0ryy	1F	et	0ryy
!	!LO:SIC:v:t=custos C	!	!
.	1D	ter-	.
!	!LO:LB:g=original	!	!
=8-	=8-	=8-	=8-
0ryy	0C	-rae	0ryy
=9-	=9-	=9-	=9-
0ryy	2F\	Vi-	0ryy
.	2F\	-ſi-	.
.	2F\	-bi-	.
.	2F\	-li-	.
=10-	=10-	=10-	=10-
*	*lig	*	*
0ryy	1G	-um	0ryy
.	1A	.	.
*	*Xlig	*	*
=11-	=11-	=11-	=11-
0ryy	1B-	o-	0ryy
.	1G	-mni-	.
=12-	=12-	=12-	=12-
0ryy	0F	-um	0ryy
=13-	=13-	=13-	=13-
0ryy	1G	et	0ryy
.	1G	in-	.
=14-	=14-	=14-	=14-
0ryy	1D	-Vi-	0ryy
.	1E	-ſi-	.
=15-	=15-	=15-	=15-
0ryy	1F	-bi-	0ryy
.	1G	-li-	.
=16-	=16-	=16-	=16-
!	!LO:SIC:v:t=custos c	!	!
0ryy	0F;	-um	0ryy
!	!LO:LB:g=original	!	!
=17-	=17-	=17-	=17-
0ryy	1c	Et	0ryy
.	1c	in	.
=18-	=18-	=18-	=18-
0ryy	1d	V-	0ryy
.	1c	-num	.
=19-	=19-	=19-	=19-
0ryy	1A	Do-	0ryy
.	1B-	-mi-	.
=20-	=20-	=20-	=20-
0ryy	0c	-num	0ryy
=21-	=21-	=21-	=21-
0ryy	0d	Je-	0ryy
=22-	=22-	=22-	=22-
0ryy	1c	-sum	0ryy
*	*lig	*	*
.	1A	Chri-	.
=23-	=23-	=23-	=23-
0ryy	1G	.	0ryy
*	*Xlig	*	*
.	0F	-ſtu(m)	.
=24-	=24-	=24-	=24-
0ryy	.	.	0ryy
.	1D	Fi-	.
=25-	=25-	=25-	=25-
0ryy	2E\	-li-	0ryy
!	!LO:SIC:v:t=custos G	!	!
.	2F\	-um	.
!	!LO:LB:g=original	!	!
.	1G	De-	.
=26-	=26-	=26-	=26-
0ryy	1C	-i	0ryy
.	1D	V-	.
=27-	=27-	=27-	=27-
0ryy	1E	-ni-	0ryy
.	1F	-ge-	.
=28-	=28-	=28-	=28-
0ryy	1D	-ni-	0ryy
.	0C	-tum	.
=29-	=29-	=29-	=29-
0ryy	.	.	0ryy
.	1F	et	.
=30-	=30-	=30-	=30-
0ryy	1G	ex	0ryy
.	1A	Pa-	.
=31-	=31-	=31-	=31-
0ryy	1B-	-tre	0ryy
.	0G	na-	.
=32-	=32-	=32-	=32-
0ryy	.	.	0ryy
.	0F	-tu(m)	.
=33-	=33-	=33-	=33-
0ryy	.	.	0ryy
.	0c	an-	.
=34-	=34-	=34-	=34-
0ryy	.	.	0ryy
!	!LO:SIC:v:t=custos A	!	!
.	0F	-te	.
=35-	=35-	=35-	=35-
0ryy	.	.	0ryy
!	!LO:LB:g=original	!	!
.	0A	O-	.
=36-	=36-	=36-	=36-
0ryy	.	.	0ryy
.	1G	-mni-	.
=37-	=37-	=37-	=37-
0ryy	1B-	-a	0ryy
.	1A	Sae-	.
=38-	=38-	=38-	=38-
0ryy	1G	-cu-	0ryy
.	0F;	-la.	.
=39-	=39-	=39-	=39-
0ryy	.	.	0ryy
.	1F	De-	.
=40-	=40-	=40-	=40-
0ryy	2A\	-um	0ryy
.	2A\	de	.
.	1F	De-	.
=41-	=41-	=41-	=41-
0ryy	1A	-o	0ryy
.	0c	Lu-	.
=42-	=42-	=42-	=42-
0ryy	.	.	0ryy
.	1A	-men	.
=43-	=43-	=43-	=43-
!	!LO:SIC:v:t=custos B-	!	!
0ryy	1c	de	0ryy
!	!LO:PB:g=original	!	!
.	1B-	lu-	.
=44-	=44-	=44-	=44-
0ryy	1G	-mi-	0ryy
.	0A	-ne	.
=45-	=45-	=45-	=45-
0ryy	.	.	0ryy
.	1c	De-	.
=46-	=46-	=46-	=46-
0ryy	1A	-um	0ryy
.	1F	Ve-	.
=47-	=47-	=47-	=47-
0ryy	1G	-ru(m)	0ryy
.	0A	de	.
=48-	=48-	=48-	=48-
0ryy	.	.	0ryy
.	1G	De-	.
=49-	=49-	=49-	=49-
0ryy	1B-	-o	0ryy
*	*lig	*	*
.	1A	Ve-	.
=50-	=50-	=50-	=50-
0ryy	1G	.	0ryy
*	*Xlig	*	*
.	0F;	-ro	.
=51-	=51-	=51-	=51-
0ryy	.	.	0ryy
.	1c	Ge-	.
=52-	=52-	=52-	=52-
!	!LO:SIC:v:t=custos d	!	!
0ryy	1c	-ni-	0ryy
!	!LO:LB:g=original	!	!
.	1d	-tum	.
=53-	=53-	=53-	=53-
0ryy	1c	no(n)	0ryy
*	*lig	*	*
.	1A	fa-	.
=54-	=54-	=54-	=54-
0ryy	1B-	.	0ryy
*	*Xlig	*	*
.	0c	-ctu(m)	.
=55-	=55-	=55-	=55-
0ryy	.	.	0ryy
.	2c\	Con-	.
.	2c\	-ſub-	.
=56-	=56-	=56-	=56-
0ryy	2c\	-ſta(n)-	0ryy
.	2c\	-ti-	.
.	1d	-a-	.
=57-	=57-	=57-	=57-
0ryy	1c	-lem	0ryy
*	*lig	*	*
.	1A	-Pa-	.
=58-	=58-	=58-	=58-
0ryy	1G	.	0ryy
*	*Xlig	*	*
.	0F;	-tri	.
=59-	=59-	=59-	=59-
0ryy	.	.	0ryy
.	1D	per	.
=60-	=60-	=60-	=60-
!	!LO:SIC:v:t=custos F	!	!
0ryy	1E	quem	0ryy
!	!LO:LB:g=original	!	!
.	1F	O-	.
=61-	=61-	=61-	=61-
0ryy	2E/	-mni-	0ryy
.	2E/	-a	.
.	1D	fa-	.
=62-	=62-	=62-	=62-
0ryy	1D	-cta	0ryy
.	0C;	sunt,	.
=63-	=63-	=63-	=63-
0ryy	.	.	0ryy
.	1F	qui	.
=64-	=64-	=64-	=64-
0ryy	1F	pro-	0ryy
.	1G	-pter	.
=65-	=65-	=65-	=65-
0ryy	1A	nos	0ryy
.	1B-	ho-	.
=66-	=66-	=66-	=66-
0ryy	1G	-mi-	0ryy
!	!LO:SIC:v:t=custos G	!	!
.	0F	-nes	.
=67-	=67-	=67-	=67-
0ryy	.	.	0ryy
!	!LO:LB:g=original	!	!
.	1G	et	.
=68-	=68-	=68-	=68-
0ryy	2G\	pro-	0ryy
.	2G\	-pter	.
.	1D	no-	.
=69-	=69-	=69-	=69-
0ryy	1E	-ſtram	0ryy
.	1F	Sa-	.
=70-	=70-	=70-	=70-
0ryy	1G	-lu-	0ryy
!	!LO:N:vis=0	!	!
.	1F;	-tem.	.
=71-	=71-	=71-	=71-
*	*clefF2	*	*
0ryy	0f	De-	0ryy
=72-	=72-	=72-	=72-
0ryy	0e	-ſcen-	0ryy
=73-	=73-	=73-	=73-
0ryy	1d	-dit	0ryy
.	1c	de	.
=74-	=74-	=74-	=74-
0ryy	1d	cae-	0ryy
*	*lig	*	*
.	1c	-lis	.
=75-	=75-	=75-	=75-
0ryy	1B-	.	0ryy
*	*Xlig	*	*
!	!LO:LB:g=original	!	!
.	0c	Et	.
=76-	=76-	=76-	=76-
0ryy	.	.	0ryy
.	1d	in-	.
=77-	=77-	=77-	=77-
0ryy	1e	-car-	0ryy
.	1f	-na-	.
=78-	=78-	=78-	=78-
0ryy	1e	-tus	0ryy
.	0d	est	.
=79-	=79-	=79-	=79-
0ryy	.	.	0ryy
.	0c	de	.
=80-	=80-	=80-	=80-
0ryy	.	.	0ryy
*	*lig	*	*
.	1f	Spi-	.
=81-	=81-	=81-	=81-
0ryy	1e	.	0ryy
*	*Xlig	*	*
.	1d	-ri-	.
=82-	=82-	=82-	=82-
0ryy	1c	-tu	0ryy
*	*lig	*	*
.	1A	S(an)-	.
=83-	=83-	=83-	=83-
0ryy	1B-	.	0ryy
*	*Xlig	*	*
!	!LO:N:vis=0.	!	!
.	1c;	-cto	.
=84-	=84-	=84-	=84-
0ryy	1F	ex	0ryy
.	1G	Ma-	.
=85-	=85-	=85-	=85-
0ryy	1A	-ri-	0ryy
!	!LO:SIC:v:t=custos c	!	!
.	1B-	-a	.
!	!LO:PB:g=original	!	!
=86-	=86-	=86-	=86-
*	*clefF3	*	*
0ryy	1c	Vir-	0ryy
.	1B-	-gi-	.
=87-	=87-	=87-	=87-
0ryy	0A	-ne	0ryy
=88-	=88-	=88-	=88-
0ryy	0G	et	0ryy
=89-	=89-	=89-	=89-
0ryy	0A	Ho-	0ryy
=90-	=90-	=90-	=90-
0ryy	0F	-mo	0ryy
=91-	=91-	=91-	=91-
0ryy	0B-	fa-	0ryy
=92-	=92-	=92-	=92-
0ryy	0G	-ctus	0ryy
=93-	=93-	=93-	=93-
0ryy	0F;	est.	0ryy
=94||	=94||	=94||	=94||
0ryy	1F	Cru-	0ryy
.	1A	-ci-	.
=95-	=95-	=95-	=95-
0ryy	1F	-fi-	0ryy
.	1A	-xus	.
=96-	=96-	=96-	=96-
0ryy	0c	e-	0ryy
=97-	=97-	=97-	=97-
0ryy	1A	-ti-	0ryy
.	1c	-am	.
!	!LO:LB:g=original	!	!
=98-	=98-	=98-	=98-
0ryy	1B-	pro	0ryy
.	1G	no-	.
=99-	=99-	=99-	=99-
0ryy	0A	-bis	0ryy
=100-	=100-	=100-	=100-
0ryy	1d	Sub	0ryy
.	1A	Pon-	.
=101-	=101-	=101-	=101-
0ryy	1F	-ti-	0ryy
.	1G	-o	.
=102-	=102-	=102-	=102-
0ryy	1A	Pi-	0ryy
.	1A	-la-	.
=103-	=103-	=103-	=103-
0ryy	0G	-to	0ryy
=104-	=104-	=104-	=104-
0ryy	1B-	paſ-	0ryy
.	1B-	-ſus	.
=105-	=105-	=105-	=105-
0ryy	1A	et	0ryy
.	1A	ſe-	.
=106-	=106-	=106-	=106-
0ryy	1G	-pul-	0ryy
.	1G	-tus	.
=107-	=107-	=107-	=107-
0ryy	0F;	eſt	0ryy
!	!LO:LB:g=original	!	!
=108-	=108-	=108-	=108-
0ryy	1F	Et	0ryy
.	2A\	re-	.
.	2B-\	-ſur-	.
=109-	=109-	=109-	=109-
0ryy	1c	-re-	0ryy
.	1d	-xit	.
=110-	=110-	=110-	=110-
0ryy	1c	ter-	0ryy
.	2G\	-ti-	.
.	2B-\	-a	.
=111-	=111-	=111-	=111-
0ryy	1A	di-	0ryy
.	1F	-e	.
=112-	=112-	=112-	=112-
0ryy	1B-	ſe-	0ryy
.	0c	-cun-	.
=113-	=113-	=113-	=113-
0ryy	.	.	0ryy
.	1A	-dum	.
=114-	=114-	=114-	=114-
0ryy	1F	ſcri-	0ryy
.	0G	-ptu-	.
=115-	=115-	=115-	=115-
0ryy	.	.	0ryy
!	!LO:SIC:v:t=custos B-	!	!
!	!LO:N:vis=0	!	!
.	1F;	-ras.	.
!	!LO:LB:g=original	!	!
=116-	=116-	=116-	=116-
*	*M3/2	*	*
0.ryy	0B-	Et	0.ryy
.	1B-	aſ-	.
=117-	=117-	=117-	=117-
0.ryy	0B-	-cen-	0.ryy
.	1c	-dit	.
=118-	=118-	=118-	=118-
0.ryy	0A	in	0.ryy
.	1A	cae-	.
=119-	=119-	=119-	=119-
0.r	0.G	-lum	0.r
=120-	=120-	=120-	=120-
*	*M2/1	*	*
*	*met(C)	*	*
0r	1A	ſe-	0r
.	2A\	-det	.
.	2A\	ad	.
=121-	=121-	=121-	=121-
0ryy	1G	dex-	0ryy
.	2B-\	-te-	.
.	2B-\	-ram	.
=122-	=122-	=122-	=122-
*	*lig	*	*
0ryy	1A	Pa-	0ryy
.	1G	.	.
*	*Xlig	*	*
=123-	=123-	=123-	=123-
0ryy	0F;	-tris	0ryy
=124-	=124-	=124-	=124-
0ryy	1F	Et	0ryy
.	2A\	i-	.
!	!LO:SIC:v:t=custos F	!	!
.	2A\	-ter-	.
!	!LO:LB:g=original	!	!
=125-	=125-	=125-	=125-
0ryy	1F	-rum	0ryy
.	1A	Ven-	.
=126-	=126-	=126-	=126-
0ryy	1c	-tu-	0ryy
.	1c	-rus	.
=127-	=127-	=127-	=127-
0ryy	1A	eſt	0ryy
.	1c	cu(m)	.
=128-	=128-	=128-	=128-
0ryy	1B-	glo-	0ryy
.	1G	-ri-	.
=129-	=129-	=129-	=129-
0ryy	0A	-a	0ryy
=130-	=130-	=130-	=130-
0ryy	1c	iu-	0ryy
.	1A	-di-	.
=131-	=131-	=131-	=131-
0ryy	1F	-ca-	0ryy
.	1G	-re	.
=132-	=132-	=132-	=132-
0ryy	0A	Vi-	0ryy
=133-	=133-	=133-	=133-
0ryy	1G	-vos	0ryy
.	1B-	et	.
=134-	=134-	=134-	=134-
0ryy	1A	mor-	0ryy
.	1G	tu-	.
=135-	=135-	=135-	=135-
0ryy	0F;	-os	0ryy
=136-	=136-	=136-	=136-
0ryy	1D	Cu-	0ryy
!	!LO:SIC:v:t=custos F	!	!
.	1E	-ius	.
!	!LO:PB:g=original	!	!
=137-	=137-	=137-	=137-
*	*lig	*	*
0ryy	1F	re-	0ryy
.	1D	.	.
*	*Xlig	*	*
=138-	=138-	=138-	=138-
0ryy	0C	-gni	0ryy
=139-	=139-	=139-	=139-
0ryy	1G	non	0ryy
.	1B-	e-	.
=140-	=140-	=140-	=140-
0ryy	1A	-rit	0ryy
.	1G	fi-	.
=141-	=141-	=141-	=141-
0ryy	0F;	-nis	0ryy
=142-	=142-	=142-	=142-
0ryy	1A	Et	0ryy
.	1c	in	.
=143-	=143-	=143-	=143-
0ryy	1c	Spi-	0ryy
.	2c\	-ri-	.
.	2c\	-tum	.
=144-	=144-	=144-	=144-
0ryy	2B-\	ſan-	0ryy
.	2A\	-ctum	.
.	2G\	Do-	.
.	2B-\	-mi-	.
=145-	=145-	=145-	=145-
0ryy	0A	-nu(m)	0ryy
=146-	=146-	=146-	=146-
0ryy	1A	et	0ryy
.	2A\	Vi-	.
!	!LO:SIC:v:t=custos G	!	!
.	2A\	-vi-	.
!	!LO:LB:g=original	!	!
=147-	=147-	=147-	=147-
0ryy	1G	-fi-	0ryy
.	1B-	-can-	.
=148-	=148-	=148-	=148-
0ryy	0A	-tem,	0ryy
=149-	=149-	=149-	=149-
0ryy	0A	qui	0ryy
=150-	=150-	=150-	=150-
0ryy	1G	ex	0ryy
.	1B-	Pa-	.
=151-	=151-	=151-	=151-
0ryy	0A	-tre	0ryy
=152-	=152-	=152-	=152-
0ryy	1A	Fi-	0ryy
.	2G\	-li-	.
.	2F\	-o-	.
=153-	=153-	=153-	=153-
0ryy	2E\	-que	0ryy
.	2F\	pro-	.
.	1G	-ce-	.
=154-	=154-	=154-	=154-
0ryy	0F;	-dit	0ryy
=155-	=155-	=155-	=155-
*	*M3/2	*	*
0ryy	1c	Qui	0ryy
.	2A\	cu(m)	.
.	1F	Pa-	.
1r	.	.	1r
!	!LO:SIC:v:t=custos c	!	!
.	2A\	-tre	.
!	!LO:LB:g=original	!	!
=156-	=156-	=156-	=156-
0.r	2c\	et	0.r
.	2.d\	Fi-	.
!	!LO:N:vis=8	!	!
.	4d\	-li-	.
.	1.c	-o	.
=157-	=157-	=157-	=157-
0.r	1c	Si-	0.r
.	2B-\	-mul	.
.	1A	a-	.
.	2c\	-do-	.
=158-	=158-	=158-	=158-
0.r	(1B-	-ra-	0.r
.	2A\)	.	.
.	1G,<	-tur	.
.	2A\	et	.
=159-	=159-	=159-	=159-
0.r	1c	con-	0.r
.	2A\	-glo-	.
.	1F	-ri-	.
.	2G\	-fi-	.
=160-	=160-	=160-	=160-
0.r	1A	-ca-	0.r
.	2B-\	-tur,	.
.	1c	qui	.
.	2A\	lo-	.
=161-	=161-	=161-	=161-
0.r	1F	-cu-	0.r
!	!LO:SIC:v:t=custos A	!	!
.	2G\	-tus	.
!	!LO:LB:g=original	!	!
.	1A	eſt	.
.	2c\	per	.
=162-	=162-	=162-	=162-
0.r	2A\	Pro-	0.r
.	1G	-phe-	.
.	1.F	-tas.	.
=163-	=163-	=163-	=163-
*	*M2/1	*	*
*	*met(C)	*	*
0ryy	1c	Et	0ryy
.	2c\	U-	.
.	2c\	-nam	.
=164-	=164-	=164-	=164-
0ryy	1d	San-	0ryy
.	1c	-ctam	.
=165-	=165-	=165-	=165-
0ryy	1B-	Ca-	0ryy
.	2G\	-tho-	.
.	2A\	-li-	.
=166-	=166-	=166-	=166-
0ryy	0.B-	-ca(m),	0ryy
=167-	=167-	=167-	=167-
0ryy	.	.	0ryy
.	1c	et	.
=168-	=168-	=168-	=168-
0ryy	2c\	A-	0ryy
!	!LO:SIC:v:t=custos d	!	!
.	2c\	-po-	.
!	!LO:LB:g=original	!	!
.	2d\	-sto-	.
.	2d\	-li-	.
=169-	=169-	=169-	=169-
0ryy	1c	-cam	0ryy
.	1B-	Ec-	.
=170-	=170-	=170-	=170-
0ryy	2G\	-cle-	0ryy
.	2A\	-ſi-	.
.	0B-	-am	.
=171-	=171-	=171-	=171-
0ryy	.	.	0ryy
.	1G	Con-	.
=172-	=172-	=172-	=172-
0ryy	2B-\	-fi-	0ryy
.	2A\	-te-	.
.	1G	-or	.
=173-	=173-	=173-	=173-
0ryy	1B-	U-	0ryy
.	2A\	-num	.
.	2F/	bap-	.
=174-	=174-	=174-	=174-
0ryy	1G	-tiſ-	0ryy
!	!LO:SIC:v:t=custos c	!	!
.	1F;	-ma.	.
!	!LO:LB:g=original	!	!
=175-	=175-	=175-	=175-
*	*clefF2	*	*
0ryy	2c\	In	0ryy
.	2c\	re-	.
.	2d\	-miſ-	.
.	2e\	-ſi-	.
=176-	=176-	=176-	=176-
0ryy	1f	-o-	0ryy
.	1e	-nem	.
=177-	=177-	=177-	=177-
*	*lig	*	*
0ryy	1d	pec-	0ryy
.	1c	.	.
*	*Xlig	*	*
=178-	=178-	=178-	=178-
0ryy	1A	-ca-	0ryy
.	1B-	-to-	.
=179-	=179-	=179-	=179-
0ryy	0c	-rum	0ryy
=180-	=180-	=180-	=180-
0ryy	0F	et	0ryy
=181-	=181-	=181-	=181-
0ryy	0B-	ex-	0ryy
=182-	=182-	=182-	=182-
0ryy	0G	-pe-	0ryy
=183-	=183-	=183-	=183-
0ryy	1F	-cto	0ryy
*	*clefF3	*	*
.	2D/	re-	.
.	2D/	-sur-	.
=184-	=184-	=184-	=184-
0ryy	2E/	-re-	0ryy
.	2F\	-cti-	.
.	1G	-o-	.
=185-	=185-	=185-	=185-
!	!LO:SIC:v:t=custos C	!	!
0ryy	1E	-nem	0ryy
!	!LO:PB:g=original	!	!
.	0C	mor-	.
=186-	=186-	=186-	=186-
0ryy	.	.	0ryy
.	1F	-tu-	.
=187-	=187-	=187-	=187-
0ryy	1D	-o-	0ryy
!	!LO:N:vis=0	!	!
.	1C;	-rum	.
=188-	=188-	=188-	=188-
*	*M3/2	*	*
0.ryy	1F	Et	0.ryy
.	2A\	Vi-	.
.	1c	-tam	.
.	2c\	Ven-	.
=189-	=189-	=189-	=189-
0.ryy	1A	-tu-	0.ryy
.	2c\	-ri	.
.	1B-	Sae-	.
.	2G\	-cu-	.
=190-	=190-	=190-	=190-
!	!LO:N:vis=1	!	!
0.ryy	0A	-li	0.ryy
.	1r	.	.
=191-	=191-	=191-	=191-
*	*M2/1	*	*
*	*met(C)	*	*
*	*lig	*	*
0ryy	1c	A-	0ryy
!	!LO:SIC:v:t=custos F	!	!
.	1A	.	.
*	*Xlig	*	*
!	!LO:LB:g=original	!	!
=192-	=192-	=192-	=192-
*	*lig	*	*
0ryy	1F	.	0ryy
.	1G	.	.
*	*Xlig	*	*
=193-	=193-	=193-	=193-
0ryy	0A	.	0ryy
=194-	=194-	=194-	=194-
*	*lig	*	*
0ryy	1G	.	0ryy
.	1B-	.	.
=195-	=195-	=195-	=195-
0ryy	1A	.	0ryy
.	1G	.	.
*	*Xlig	*	*
=196-	=196-	=196-	=196-
0ryy	0Fl;	-men	0ryy
==	==	==	==
*-	*-	*-	*-
!!!system-decoration: [(*)]
!!!RDF**kern: < = below
!!!RDF**kern: l = terminal long
!!!ENC: Andrzej Gręziak
!!!END: 2021-12-28
!!!ENC: Andrzej Kubiczek
!!!END: 2021-12-31
